src/asset/24px/bookmark.svg

<svg width="24" height="24" viewBox="0 0 24 24" fill="none" xmlns="http://www.w3.org/2000/svg">
<path fill-rule="evenodd" clip-rule="evenodd" d="M6 5.99973C6 4.34287 7.34315 2.99973 9 2.99973H15C16.6569 2.99973 18 4.34287 18 5.99973V19.9997C18 20.3841 17.7797 20.7345 17.4332 20.901C17.0867 21.0675 16.6755 21.0207 16.3753 20.7806L12.6247 17.7801C12.2595 17.4879 11.7405 17.4879 11.3753 17.7801L7.6247 20.7806C7.32453 21.0207 6.91328 21.0675 6.56681 20.901C6.22035 20.7345 6 20.3841 6 19.9997V5.99973ZM9 4.99973C8.44772 4.99973 8 5.44744 8 5.99973V17.9191L10.1259 16.2184C11.2216 15.3418 12.7784 15.3418 13.8741 16.2184L16 17.9191V5.99973C16 5.44744 15.5523 4.99973 15 4.99973H9Z" fill="#808080"/>
</svg>

<svg width="24" height="24" fill="none" xmlns="http://www.w3.org/2000/svg"><path fill-rule="evenodd" clip-rule="evenodd" d="M6 6a3 3 0 013-3h6a3 3 0 013 3v14a1 1 0 01-1.625.78l-3.75-3a1 1 0 00-1.25 0l-3.75 3A1 1 0 016 20V6zm3-1a1 1 0 00-1 1v11.92l2.126-1.702a3 3 0 013.748 0L16 17.92V6a1 1 0 00-1-1H9z" fill="gray"/></svg>
